icons/svg/barrier_colored/kissing_gate.svg

<?xml version="1.0" encoding="UTF-8" standalone="no"?>
<!-- Created with Inkscape (http://www.inkscape.org/) -->

<svg
   xmlns:dc="http://purl.org/dc/elements/1.1/"
   xmlns:cc="http://creativecommons.org/ns#"
   xmlns:rdf="http://www.w3.org/1999/02/22-rdf-syntax-ns#"
   xmlns:svg="http://www.w3.org/2000/svg"
   xmlns="http://www.w3.org/2000/svg"
   xmlns:sodipodi="http://sodipodi.sourceforge.net/DTD/sodipodi-0.dtd"
   xmlns:inkscape="http://www.inkscape.org/namespaces/inkscape"
   version="1.0"
   width="580"
   height="580"
   id="svg2"
   sodipodi:version="0.32"
   inkscape:version="0.48.4 r9939"
   sodipodi:docname="kissing_gate.svg"
   inkscape:output_extension="org.inkscape.output.svg.inkscape">
  <metadata
     id="metadata2975">
    <rdf:RDF>
      <cc:Work
         rdf:about="">
        <dc:format>image/svg+xml</dc:format>
        <dc:type
           rdf:resource="http://purl.org/dc/dcmitype/StillImage" />
        <cc:license
           rdf:resource="http://web.resource.org/cc/PublicDomain" />
        <dc:language>en</dc:language>
        <dc:title />
      </cc:Work>
    </rdf:RDF>
  </metadata>
  <sodipodi:namedview
     inkscape:window-height="1004"
     inkscape:window-width="1920"
     inkscape:pageshadow="2"
     inkscape:pageopacity="0.0"
     guidetolerance="10.0"
     gridtolerance="10.0"
     objecttolerance="10.0"
     borderopacity="1.0"
     bordercolor="#666666"
     pagecolor="#ffffff"
     id="base"
     inkscape:zoom="0.92167712"
     inkscape:cx="14.752731"
     inkscape:cy="283.53786"
     inkscape:window-x="1680"
     inkscape:window-y="0"
     inkscape:current-layer="svg2"
     showgrid="false"
     inkscape:window-maximized="1" />
  <defs
     id="defs4">
    <inkscape:perspective
       sodipodi:type="inkscape:persp3d"
       inkscape:vp_x="0 : 290 : 1"
       inkscape:vp_y="0 : 1000 : 0"
       inkscape:vp_z="580 : 290 : 1"
       inkscape:persp3d-origin="290 : 193.33333 : 1"
       id="perspective2441" />
    <inkscape:perspective
       id="perspective3452"
       inkscape:persp3d-origin="30 : 20 : 1"
       inkscape:vp_z="60 : 30 : 1"
       inkscape:vp_y="0 : 1000 : 0"
       inkscape:vp_x="0 : 30 : 1"
       sodipodi:type="inkscape:persp3d" />
    <symbol
       viewBox="244.5 110 489 219.9"
       id="symbol-university">
      <path
         id="path4460"
         d="M79,43l57,119c0,0,21-96,104-96s124,106,124,106l43-133l82-17L0,17L79,43z" />
      <path
         id="path4462"
         d="M94,176l-21,39"
         stroke-width="20"
         stroke="#000000"
         fill="none" />
      <path
         id="path4464"
         d="M300,19c0,10.5-22.6,19-50.5,19S199,29.5,199,19s22.6-19,50.5-19S300,8.5,300,19z" />
      <path
         id="path4466"
         d="M112,216l-16-38L64,88c0,0-9-8-4-35s16-24,16-24"
         stroke-width="20"
         stroke="#000000"
         ill="none" />
    </symbol>
    <inkscape:perspective
       id="perspective4471"
       inkscape:persp3d-origin="372.04724 : 350.78739 : 1"
       inkscape:vp_z="744.09448 : 526.18109 : 1"
       inkscape:vp_y="0 : 1000 : 0"
       inkscape:vp_x="0 : 526.18109 : 1"
       sodipodi:type="inkscape:persp3d" />
    <inkscape:perspective
       id="perspective4668"
       inkscape:persp3d-origin="6 : 4 : 1"
       inkscape:vp_z="12 : 6 : 1"
       inkscape:vp_y="0 : 1000 : 0"
       inkscape:vp_x="0 : 6 : 1"
       sodipodi:type="inkscape:persp3d" />
    <inkscape:perspective
       id="perspective5517"
       inkscape:persp3d-origin="0.5 : 0.33333333 : 1"
       inkscape:vp_z="1 : 0.5 : 1"
       inkscape:vp_y="0 : 1000 : 0"
       inkscape:vp_x="0 : 0.5 : 1"
       sodipodi:type="inkscape:persp3d" />
  </defs>
  <g
     id="g1327">
    <path
       d="M 66.275,1.768 C 24.94,1.768 1.704,23.139 1.704,66.804 L 1.704,516.927 C 1.704,557.771 22.599,579.156 63.896,579.156 L 515.92,579.156 C 557.227,579.156 578.149,558.841 578.149,516.927 L 578.149,66.804 C 578.149,24.203 557.227,1.768 514.628,1.768 C 514.624,1.768 66.133,1.625 66.275,1.768 z"
       style="fill:#111111;stroke:#eeeeee;stroke-width:3.40799999"
       id="path1329" />
  </g>
  <path
     inkscape:connector-curvature="0"
     id="path5473"
     d="m 64.601321,457.73909 c 0,-35.346 88.646999,-64 197.999999,-64"
     style="fill:none;stroke:#ffffff;stroke-width:20;stroke-opacity:1;opacity:0.64426877" />
  <polygon
     id="polygon5475"
     points="328.149,185.931 519.152,120.931 519.152,442.928 328.149,507.928 "
     style="fill:none;stroke:#ffffff;stroke-width:30;stroke-linecap:round;stroke-linejoin:round"
     transform="translate(-6.5446793,11.806088)" />
  <path
     inkscape:connector-curvature="0"
     id="path5477"
     d="m 64.601321,360.73909 c 0,-35.346 88.646999,-64.001 197.999999,-64.001"
     style="fill:none;stroke:#ffffff;stroke-width:20;stroke-opacity:1;opacity:0.64426877" />
  <path
     inkscape:connector-curvature="0"
     id="path5479"
     d="m 64.601321,264.73709 c 0,-35.346 88.646999,-64 197.999999,-64"
     style="fill:none;stroke:#ffffff;stroke-width:20;stroke-opacity:1;opacity:0.64426877" />
  <path
     inkscape:connector-curvature="0"
     id="path5481"
     d="m 262.60132,521.73409 c -109.353,0 -197.999999,-28.654 -197.999999,-64"
     style="fill:none;stroke:#ffffff;stroke-width:30;stroke-linecap:round" />
  <line
     id="line5483"
     y2="458.7341"
     x2="64.601326"
     y1="133.73709"
     x1="64.601326"
     style="fill:none;stroke:#ffffff;stroke-width:30;stroke-linecap:round" />
  <line
     id="line5485"
     y2="521.73407"
     x2="261.60132"
     y1="200.73709"
     x1="261.60132"
     style="fill:none;stroke:#ffffff;stroke-width:30;stroke-linecap:round" />
  <line
     id="line5487"
     y2="200.73709"
     x2="261.60132"
     y1="70.737091"
     x1="261.60132"
     style="fill:none;stroke:#ffffff;stroke-width:30;stroke-opacity:1;opacity:0.64426877" />
  <path
     inkscape:connector-curvature="0"
     id="path5489"
     d="m 261.60132,407.73909 c -109.353,0 -197.999999,-28.654 -197.999999,-64"
     style="fill:none;stroke:#ffffff;stroke-width:20" />
  <path
     inkscape:connector-curvature="0"
     id="path5491"
     d="m 263.60132,304.73809 c -109.353,0 -197.999999,-28.655 -197.999999,-64"
     style="fill:none;stroke:#ffffff;stroke-width:20" />
  <path
     inkscape:connector-curvature="0"
     id="path5493"
     d="m 262.60132,197.73709 c -109.353,0 -197.999999,-28.654 -197.999999,-64 0,-35.346002 88.646999,-64.000002 197.999999,-64.000002"
     style="fill:none;stroke:#ffffff;stroke-width:30;stroke-linecap:round" />
  <line
     id="line5495"
     y2="239.7401"
     x2="512.6073"
     y1="304.74109"
     x1="321.60431"
     style="fill:none;stroke:#ffffff;stroke-width:30;stroke-linecap:round;stroke-linejoin:round" />
  <line
     id="line5497"
     y2="343.7421"
     x2="512.6073"
     y1="408.7421"
     x1="321.60431"
     style="fill:none;stroke:#ffffff;stroke-width:30;stroke-linecap:round;stroke-linejoin:round" />
  <line
     id="line5499"
     y2="134.73709"
     x2="508.60132"
     y1="515.73407"
     x1="322.60132"
     style="fill:none;stroke:#ffffff;stroke-width:20;stroke-linecap:round;stroke-linejoin:round" />
</svg>

<svg width="580" height="580" viewBox="0 0 580 580" fill="none" xmlns="http://www.w3.org/2000/svg">
<g clip-path="url(#clip0)">
<path d="M66.2751 1.76802C24.9401 1.76802 1.7041 23.139 1.7041 66.804V516.927C1.7041 557.771 22.5991 579.156 63.8961 579.156H515.92C557.227 579.156 578.149 558.841 578.149 516.927V66.804C578.149 24.203 557.227 1.76802 514.628 1.76802C514.624 1.76802 66.1331 1.62502 66.2751 1.76802Z" fill="#111111" stroke="#EEEEEE" stroke-width="3.408"/>
<path opacity="0.644269" d="M64.6016 457.739C64.6016 422.393 153.249 393.739 262.602 393.739" stroke="white" stroke-width="20"/>
<path d="M321.604 197.737L512.607 132.737V454.734L321.604 519.734V197.737Z" stroke="white" stroke-width="30" stroke-linecap="round" stroke-linejoin="round"/>
<path opacity="0.644269" d="M64.6016 360.739C64.6016 325.393 153.249 296.738 262.602 296.738" stroke="white" stroke-width="20"/>
<path opacity="0.644269" d="M64.6016 264.737C64.6016 229.391 153.249 200.737 262.602 200.737" stroke="white" stroke-width="20"/>
<path d="M262.602 521.734C153.249 521.734 64.6016 493.08 64.6016 457.734" stroke="white" stroke-width="30" stroke-linecap="round"/>
<path d="M64.6016 133.737V458.734" stroke="white" stroke-width="30" stroke-linecap="round"/>
<path d="M261.602 200.737V521.734" stroke="white" stroke-width="30" stroke-linecap="round"/>
<path opacity="0.644269" d="M261.602 70.7371V200.737" stroke="white" stroke-width="30"/>
<path d="M261.602 407.739C152.249 407.739 63.6016 379.085 63.6016 343.739" stroke="white" stroke-width="20"/>
<path d="M263.602 304.738C154.249 304.738 65.6016 276.083 65.6016 240.738" stroke="white" stroke-width="20"/>
<path d="M262.602 197.737C153.249 197.737 64.6016 169.083 64.6016 133.737C64.6016 98.3911 153.249 69.7371 262.602 69.7371" stroke="white" stroke-width="30" stroke-linecap="round"/>
<path d="M321.604 304.741L512.607 239.74" stroke="white" stroke-width="30" stroke-linecap="round" stroke-linejoin="round"/>
<path d="M321.604 408.742L512.607 343.742" stroke="white" stroke-width="30" stroke-linecap="round" stroke-linejoin="round"/>
<path d="M322.602 515.734L508.602 134.737" stroke="white" stroke-width="20" stroke-linecap="round" stroke-linejoin="round"/>
</g>
<defs>
<clipPath id="clip0">
<path d="M0 0H580V580H0V0Z" fill="white"/>
</clipPath>
</defs>
</svg>
